rospo-icon-theme-classic-common/22x22/places/folder-grey-image-people.svg

<svg xmlns="http://www.w3.org/2000/svg" width="22" height="22" version="1">
 <rect style="opacity:0.2" width="20" height="12" x="1" y="8.5" rx="1" ry="1"/>
 <path style="fill:#727272" d="M 1,16 C 1,16.554 1.446,17 2,17 H 20 C 20.554,17 21,16.554 21,16 V 5 C 21,4.446 20.554,4 20,4 H 10 V 3 C 10,2.446 9.554,2 9,2 H 2 C 1.446,2 1,2.446 1,3"/>
 <rect style="opacity:0.2" width="20" height="12" x="1" y="7.5" rx="1" ry="1"/>
 <rect style="fill:#dcdcdc" width="16" height="8" x="3" y="6" rx="1" ry="1"/>
 <rect style="fill:#8e8e8e" width="20" height="12" x="1" y="8" rx="1" ry="1"/>
 <path style="opacity:0.1;fill:#ffffff" d="M 2,2 C 1.446,2 1,2.446 1,3 V 3.5 C 1,2.946 1.446,2.5 2,2.5 H 9 C 9.554,2.5 10,2.946 10,3.5 V 3 C 10,2.446 9.554,2 9,2 Z M 10,4 V 4.5 H 20 C 20.554,4.5 21,4.946 21,5.5 V 5 C 21,4.446 20.554,4 20,4 Z"/>
 <path style="fill:#323232" d="M 11,10 A 2,2 0 0 0 8.9999,12 2,2 0 0 0 11,14 2,2 0 0 0 13,12 2,2 0 0 0 11,10 Z M 9.3065,14.062 C 8.0431,14.278 7.1267,14.714 7.0116,15.236 7.0099,15.242 7.0128,15.249 7.0116,15.254 7.0076,15.274 7.0075,15.292 7.0058,15.312 7.0052,15.322 6.9999,15.328 6.9999,15.338 6.9998,15.341 6.9999,15.341 6.9999,15.344 V 16.732 C 6.9999,16.881 7.0883,17 7.1991,17 H 14.801 C 14.912,17 15,16.881 15,16.732 V 15.328 C 14.999,15.296 14.988,15.268 14.98,15.236 14.865,14.715 13.951,14.278 12.691,14.062 A 2,2 0 0 1 11,15 2,2 0 0 1 9.3065,14.062 Z"/>
</svg>

<svg height="22" width="22" xmlns="http://www.w3.org/2000/svg"><rect height="12" opacity=".2" rx="1" width="20" x="1" y="8.5"/><path d="m1 16c0 .554.446 1 1 1h18c .554 0 1-.446 1-1v-11c0-.554-.446-1-1-1h-10v-1c0-.554-.446-1-1-1h-7c-.554 0-1 .446-1 1" fill="#727272"/><rect height="12" opacity=".2" rx="1" width="20" x="1" y="7.5"/><rect fill="#e4e4e4" height="8" rx="1" width="16" x="3" y="6"/><rect fill="#8e8e8e" height="12" rx="1" width="20" x="1" y="8"/><path d="m2 2c-.554 0-1 .446-1 1v .5c0-.554.446-1 1-1h7c .554 0 1 .446 1 1v-.5c0-.554-.446-1-1-1zm8 2v .5h10c .554 0 1 .446 1 1v-.5c0-.554-.446-1-1-1z" fill="#fff" opacity=".1"/><path d="m11 10a2 2 0 0 0 -2.0001 2 2 2 0 0 0 2.0001 2 2 2 0 0 0 2-2 2 2 0 0 0 -2-2zm-1.6935 4.062c-1.2634.216-2.1798.652-2.2949 1.174-.0017.006.0012.013 0 .018-.004.02-.0041.038-.0058.058-.0006.01-.0059.016-.0059.026-.0001.003 0 .003 0 .006v1.388c0 .149.0884.268.1992.268h7.6019c.111 0 .199-.119.199-.268v-1.404c-.001-.032-.012-.06-.02-.092-.115-.521-1.029-.958-2.289-1.174a2 2 0 0 1 -1.691.938 2 2 0 0 1 -1.6935-.938z" fill="#323232"/></svg>
